X: 375
T: Ovchepolska Potrchulka
O: Macedonia
S: Village Music of Macedonia
F: http://www.youtube.com/watch?v=wcP_efMrn40
M: 4/4
L: 1/8
Q: 1/4=200
K: Bm
%%MIDI program 69
%%MIDI drum dzdz 36 35
%%MIDI drumon
|:CD E2 E2 D2|CD E2 B,2 z2 :|\
|:A,4 DC B,2 |CD E2 B,2 z2 |\
  A,4 DC B,2 |CD E2 B,2 z2 :|



